svgs/sharp-light/dice-five.svg

<svg xmlns="http://www.w3.org/2000/svg" viewBox="0 0 448 512"><!--! Font Awesome Pro 6.6.0 by @fontawesome - https://fontawesome.com License - https://fontawesome.com/license (Commercial License) Copyright 2024 Fonticons, Inc. --><path d="M32 64l0 384 384 0 0-384L32 64zM0 32l32 0 384 0 32 0 0 32 0 384 0 32-32 0L32 480 0 480l0-32L0 64 0 32zM128 136a24 24 0 1 1 0 48 24 24 0 1 1 0-48zm216 24a24 24 0 1 1 -48 0 24 24 0 1 1 48 0zM224 232a24 24 0 1 1 0 48 24 24 0 1 1 0-48zm72 120a24 24 0 1 1 48 0 24 24 0 1 1 -48 0zM128 328a24 24 0 1 1 0 48 24 24 0 1 1 0-48z"/></svg>

<svg xmlns="http://www.w3.org/2000/svg" viewBox="0 0 448 512"><!--! Font Awesome Pro 6.4.2 by @fontawesome - https://fontawesome.com License - https://fontawesome.com/license (Commercial License) Copyright 2023 Fonticons, Inc. --><path d="M32 64V448H416V64H32zM0 32H32 416h32V64 448v32H416 32 0V448 64 32zM128 136a24 24 0 1 1 0 48 24 24 0 1 1 0-48zm216 24a24 24 0 1 1 -48 0 24 24 0 1 1 48 0zM224 232a24 24 0 1 1 0 48 24 24 0 1 1 0-48zm72 120a24 24 0 1 1 48 0 24 24 0 1 1 -48 0zM128 328a24 24 0 1 1 0 48 24 24 0 1 1 0-48z"/></svg>
